src/actions/22/color-mode-invert-image.svg

<!DOCTYPE svg>
<svg version="1.1" viewBox="0 0 22 22" xmlns="http://www.w3.org/2000/svg">
 <defs>
  <style type="text/css">.ColorScheme-Text {
                color:#2e3440;
            }</style>
 </defs>
 <path class="ColorScheme-Text" d="m11 4v8.9922l2.9941-2.9922 0.0059 0.0078 0.0078-0.0078 2.9922 2.9922-0.707 0.707-2.293-2.2929-3 3v3.5937h7v-14h-7zm-1.707 8-4.293 4.293 0.70703 0.707 3.5918-3.5918 1.3496 1.3496 0.3516-0.3515v-1.4141l-0.3516 0.3516-1.3418-1.3438-6e-3 0.0078-0.00767-0.0078zm-1.793-6c0.831 0 1.5 0.669 1.5 1.5s-0.669 1.5-1.5 1.5-1.5-0.669-1.5-1.5 0.669-1.5 1.5-1.5zm0-1c-1.385 0-2.5 1.115-2.5 2.5s1.115 2.5 2.5 2.5 2.5-1.115 2.5-2.5-1.115-2.5-2.5-2.5zm-3.5-1h14v14h-14v-14zm-1-1v16h16v-16h-16z" fill="currentColor"/>
</svg>

<!DOCTYPE svg>
<svg version="1.1" viewBox="0 0 22 22" xmlns="http://www.w3.org/2000/svg">
    <defs>
        <style id="current-color-scheme" type="text/css">
            .ColorScheme-Text {
                color:#2e3440;
            }
        </style>
    </defs>
    <path class="ColorScheme-Text" style="fill:currentColor; fill-opacity:1; stroke:none" d="M 11 4 L 11 12.9922 L 13.9941 10 L 14 10.0078 L 14.0078 10 L 17 12.9922 L 16.293 13.6992 L 14 11.4063 L 11.3555 14.0508 L 11 14.4063 L 11 18 L 18 18 L 18 4 L 11 4 Z M 9.29297 12 L 5 16.293 L 5.70703 17 L 9.29883 13.4082 L 9.94141 14.0508 L 10.6484 14.7578 L 11 14.4063 L 11 12.9922 L 10.6484 13.3438 L 9.30664 12 L 9.30064 12.0078 L 9.29297 12 Z M 7.5 6 C 8.331 6 9 6.669 9 7.5 C 9 8.331 8.331 9 7.5 9 C 6.669 9 6 8.331 6 7.5 C 6 6.669 6.669 6 7.5 6 Z M 7.5 5 C 6.115 5 5 6.115 5 7.5 C 5 8.885 6.115 10 7.5 10 C 8.885 10 10 8.885 10 7.5 C 10 6.115 8.885 5 7.5 5 Z M 4 4 L 18 4 L 18 18 L 4 18 L 4 4 Z M 3 3 L 3 19 L 19 19 L 19 3 L 3 3 Z"/>
</svg>
